src/dsmComponents/Icons/battery-low-12px.svg

<?xml version="1.0" encoding="UTF-8"?>
<svg width="9px" height="13px" viewBox="0 0 9 13" version="1.1" xmlns="http://www.w3.org/2000/svg" xmlns:xlink="http://www.w3.org/1999/xlink">
    <!-- Generator: Sketch 59.1 (86144) - https://sketch.com -->
    <title>battery-low-12px</title>
    <desc>Created with Sketch.</desc>
    <defs>
        <path d="M7.734375,2 L0.515625,2 C0.230853176,2 0,2.22385763 0,2.5 L0,11.5 C0,11.7761424 0.230853176,12 0.515625,12 L7.734375,12 C8.01914682,12 8.25,11.7761424 8.25,11.5 L8.25,2.5 C8.25,2.22385763 8.01914682,2 7.734375,2 Z M6.1875,9.25 L6.1875,10.25 L2.0625,10.25 L2.0625,9.25 L6.1875,9.25 Z M6.1875,0 L6.1875,1 L2.0625,1 L2.0625,0 L6.1875,0 Z" id="path-1"></path>
    </defs>
    <g id="Final" stroke="none" stroke-width="1" fill="none" fill-rule="evenodd">
        <g id="All-Nucleo-Icons" transform="translate(-175.000000, -795.000000)">
            <g id="Solo/Nucleo/12px/battery-low" transform="translate(168.000000, 790.000000)">
                <g id="battery-low" transform="translate(7.500000, 5.500000)">
                    <g id="Colour/Default-Colour">
                        <mask id="mask-2" fill="white">
                            <use xlink:href="#path-1"></use>
                        </mask>
                        <g id="Mask" fill-rule="nonzero"></g>
                        <g id="colour/neutral/chia" mask="url(#mask-2)" fill="#737373">
                            <g transform="translate(-27.000000, -26.000000)" id="Colour">
                                <rect x="0" y="0" width="64" height="64"></rect>
                            </g>
                        </g>
                    </g>
                </g>
            </g>
        </g>
    </g>
</svg>

<svg width="9" height="13" xmlns="http://www.w3.org/2000/svg" xmlns:xlink="http://www.w3.org/1999/xlink"><defs><path d="M7.734 2H.516A.508.508 0 000 2.5v9c0 .276.23.5.516.5h7.218a.508.508 0 00.516-.5v-9c0-.276-.23-.5-.516-.5zM6.188 9.25v1H2.063v-1h4.124zm0-9.25v1H2.063V0h4.124z" id="battery-low-12px_svg__a"/></defs><use fill="#737373" xlink:href="#battery-low-12px_svg__a" transform="translate(.5 .5)" fill-rule="evenodd"/></svg>
